assets/icons/qvision/nature_people.svg

<svg xmlns="http://www.w3.org/2000/svg" height="24" viewBox="0 0 24 24" width="24"><path d="M0 0h24v24H0z" fill="none"/><path d="M22.17 9.17c0-3.87-3.13-7-7-7s-7 3.13-7 7c0 3.47 2.52 6.34 5.83 6.89V20H6v-3h1v-4c0-.55-.45-1-1-1H3c-.55 0-1 .45-1 1v4h1v5h16v-2h-3v-3.88c3.47-.41 6.17-3.36 6.17-6.95zM4.5 11c.83 0 1.5-.67 1.5-1.5S5.33 8 4.5 8 3 8.67 3 9.5 3.67 11 4.5 11z"/></svg>

<svg width="24" height="24" viewBox="0 0 24 24" fill="none" xmlns="http://www.w3.org/2000/svg">
<g clip-path="url(#clip0_147_3617)">
<path d="M22.17 9.17C22.17 5.3 19.04 2.17 15.17 2.17C11.3 2.17 8.17 5.3 8.17 9.17C8.17 12.64 10.69 15.51 14 16.06V20H6V17H7V13C7 12.45 6.55 12 6 12H3C2.45 12 2 12.45 2 13V17H3V22H19V20H16V16.12C19.47 15.71 22.17 12.76 22.17 9.17ZM4.5 11C5.33 11 6 10.33 6 9.5C6 8.67 5.33 8 4.5 8C3.67 8 3 8.67 3 9.5C3 10.33 3.67 11 4.5 11Z" fill="#323232"/>
</g>
<defs>
<clipPath id="clip0_147_3617">
<rect width="24" height="24" fill="white"/>
</clipPath>
</defs>
</svg>
